X:0107
M:2/4
L:1/8
Q:1/4=144
K:G
g|dG     G/G/G| dG`````BG| dG     G/G/G|   d2 Bd |
  cA     A/A/A| cA`````BA|TcA     A/A/A|  d2 B  :|
  Aa`````ab   | Ag````Tfe| Aa`````ab   |   ag`fe |
  dg-````ga   | ge`````dB| Gg-````ga   |{g}f2(eg)|
 (f/g/a) eg   |(f/g/a) eg|(f/g/a) eg   |   f2 e |]

